packages/icons/web/house_large.svg

<svg width="24" height="24" viewBox="0 0 24 24" fill="none" xmlns="http://www.w3.org/2000/svg">
<path fill-rule="evenodd" clip-rule="evenodd" d="M12 4.2711L20 9.98539V18.75C20 19.4404 19.4404 20 18.75 20H13V14H11V20H5.25C4.55964 20 4 19.4404 4 18.75V9.98539L12 4.2711ZM6 11.0146V18H9V12H15V18H18V11.0146L12 6.72891L6 11.0146Z" fill="#212933"/>
</svg>

<svg width="24" height="24" fill="none" xmlns="http://www.w3.org/2000/svg">
    <path fill-rule="evenodd" clip-rule="evenodd" d="M12 4.271l8 5.714v8.765c0 .69-.56 1.25-1.25 1.25H13v-6h-2v6H5.25C4.56 20 4 19.44 4 18.75V9.985l8-5.714zm-6 6.744V18h3v-6h6v6h3v-6.985l-6-4.286-6 4.286z" fill="currentColor"/>
</svg>
